symbols/web/notification_add/materialsymbolssharp/notification_add_wght600gradN25_40px.svg

<svg xmlns="http://www.w3.org/2000/svg" height="40" width="40"><path d="M5.708 32.167v-3.542h3.667V16.958q0-3.625 2.125-6.583t5.708-3.75v-3.75h5.584v3.75q.958.208 2 .667 1.041.458 1.791 1.125l-1.271 1.271L24 11q-.875-.583-1.917-.896-1.041-.312-2.083-.312-3 0-5.042 2.083-2.041 2.083-2.041 5.083v11.667h14.208v-5.042h3.542v5.042h3.625v3.542ZM20 37.125q-1.417 0-2.458-1.021-1.042-1.021-1.042-2.479h7q0 1.458-1.021 2.479-1.021 1.021-2.479 1.021Zm11.875-15.583v-5.084h-5.083V13.5h5.083V8.458h2.958V13.5h5.042v2.958h-5.042v5.084Zm-11.833-2.334Z"/></svg>

<svg xmlns="http://www.w3.org/2000/svg" height="40" width="40"><path d="M5.708 32.167V28.625H9.375V16.958Q9.375 13.333 11.5 10.375Q13.625 7.417 17.208 6.625V2.875H22.792V6.625Q23.75 6.833 24.792 7.292Q25.833 7.75 26.583 8.417Q25.833 9.167 25.312 9.688Q24.792 10.208 24 11Q23.125 10.417 22.083 10.104Q21.042 9.792 20 9.792Q17 9.792 14.958 11.875Q12.917 13.958 12.917 16.958V28.625H27.125V23.583Q28.167 23.583 28.896 23.583Q29.625 23.583 30.667 23.583V28.625H34.292V32.167ZM20 37.125Q18.583 37.125 17.542 36.104Q16.5 35.083 16.5 33.625H23.5Q23.5 35.083 22.479 36.104Q21.458 37.125 20 37.125ZM31.875 21.542V16.458H26.792V13.5H31.875V8.458H34.833V13.5H39.875V16.458H34.833V21.542ZM20.042 19.208Q20.042 19.208 20.042 19.208Q20.042 19.208 20.042 19.208Q20.042 19.208 20.042 19.208Q20.042 19.208 20.042 19.208Q20.042 19.208 20.042 19.208Q20.042 19.208 20.042 19.208Q20.042 19.208 20.042 19.208Q20.042 19.208 20.042 19.208Z"/></svg>
